build/img/landings/motion/motylearn/2.svg

<svg width="244" height="302" viewBox="0 0 244 302" fill="none" xmlns="http://www.w3.org/2000/svg">
<path d="M3.77197 301.658C3.30047 301.658 2.82899 301.58 2.35749 301.344C0.942995 300.794 0 299.379 0 297.886V31.2544C0 29.1327 1.65023 27.4824 3.77197 27.4824H240.228C242.35 27.4824 244 29.1327 244 31.2544V222.447C244 224.568 242.35 226.219 240.228 226.219H80.7832L6.44381 300.558C5.73656 301.265 4.71497 301.658 3.77197 301.658ZM7.54397 35.0264V288.771L76.5398 219.775C77.247 219.068 78.19 218.675 79.2116 218.675H236.456V35.0264H7.54397Z" fill="white"/>
<path d="M61.373 75.1818L61.8445 187.948C61.8445 187.948 165.338 188.341 179.64 187.477C199.836 186.298 204.237 162.723 185.691 161.623C185.691 161.623 201.408 160.994 201.329 149.207C201.251 137.419 183.334 134.119 183.334 134.119C183.334 134.119 201.251 133.49 200.701 122.253C200.072 110.466 184.355 108.894 184.355 108.894C184.355 108.894 200.622 105.593 200.543 91.9986C200.465 70.1525 165.653 69.681 143.807 69.7596C143.807 69.7596 177.204 9.01501 160.388 4.06428C143.571 -0.886445 121.882 58.0508 111.823 66.5377C101.765 75.0247 61.373 75.1818 61.373 75.1818Z" fill="white"/>
<path d="M109.702 191.799C85.3413 191.799 63.7311 191.721 61.8451 191.721C59.8019 191.721 58.0731 190.071 58.0731 187.949L57.6016 75.1824C57.6016 73.1392 59.2518 71.4104 61.3736 71.4104C76.4615 71.3318 102.865 69.2101 109.388 63.7093C112.295 61.2732 117.482 51.7647 122.432 42.5705C134.141 20.8816 147.5 -3.63631 161.41 0.450007C164.317 1.31442 166.518 3.35757 167.696 6.26514C173.04 19.2313 157.48 51.6861 150.015 65.9882C160.467 66.0667 171.625 66.6168 181.213 68.9743C196.458 72.7463 204.237 80.4474 204.316 91.9991C204.316 99.7788 199.994 105.044 195.043 108.344C199.837 110.938 204.08 115.26 204.473 122.096C204.63 125.554 203.53 128.697 201.251 131.212C199.758 132.862 197.951 134.041 195.986 134.984C200.78 137.892 205.102 142.371 205.18 149.207C205.18 155.73 201.566 159.816 197.165 162.331C199.915 165.003 201.251 168.539 201.251 172.075C201.251 180.876 193.314 190.464 179.877 191.328C172.018 191.721 138.935 191.799 109.702 191.799ZM65.617 184.177C84.3198 184.255 166.91 184.413 179.405 183.705C189.228 183.077 193.707 176.554 193.629 171.997C193.629 168.067 190.642 165.631 185.456 165.396C183.413 165.317 181.92 163.588 181.92 161.624C181.92 159.58 183.491 157.93 185.535 157.852C186.006 157.852 197.636 157.223 197.558 149.207C197.558 140.878 182.784 137.892 182.627 137.813C180.741 137.42 179.405 135.77 179.562 133.805C179.719 131.919 181.291 130.348 183.177 130.269C185.613 130.19 192.686 129.247 195.672 125.947C196.615 124.925 197.008 123.825 196.929 122.332C196.458 113.924 184.12 112.509 183.963 112.509C182.077 112.352 180.662 110.78 180.584 108.973C180.505 107.087 181.763 105.437 183.57 105.122C184.12 105.044 196.772 102.215 196.772 91.9206C196.772 87.0484 194.965 80.0545 179.405 76.2039C168.718 73.5321 155.437 73.4535 143.807 73.4535C142.393 73.6107 141.214 72.7463 140.585 71.6461C139.878 70.4674 139.878 69.0529 140.507 67.8742C150.329 49.9572 164.553 18.2097 160.781 9.01554C160.388 8.07255 159.917 7.75822 159.288 7.60106C151.115 5.16499 137.363 30.783 129.033 46.0281C122.983 57.1083 118.268 65.9096 114.181 69.2887C104.908 77.0684 75.99 78.4829 65.0669 78.7186L65.617 184.177Z" fill="#FFDF57"/>
<path d="M149.308 191.328C149.151 191.328 148.915 191.328 148.758 191.25C143.179 190.385 137.835 187.085 134.849 182.605C132.413 178.991 131.705 174.983 132.648 170.897C136.027 157.223 156.38 157.459 174.297 157.773C178.384 157.852 182.156 157.852 185.456 157.773C187.578 157.616 189.307 159.345 189.385 161.388C189.464 163.431 187.814 165.239 185.771 165.317C182.313 165.474 178.384 165.396 174.219 165.317C160.545 165.16 141.921 164.846 139.957 172.704C139.485 174.669 139.878 176.555 141.057 178.362C142.864 181.034 146.4 183.155 149.779 183.706C151.823 184.02 153.237 185.906 152.923 188.028C152.766 189.992 151.194 191.328 149.308 191.328Z" fill="#FFDF57"/>
<path d="M147.579 166.103C147.421 166.103 147.186 166.103 147.028 166.025C141.763 165.239 136.184 161.388 132.884 156.28C130.133 152.037 129.269 147.479 130.447 143.393C134.062 130.426 154.808 130.426 173.118 130.426C176.733 130.426 180.19 130.426 183.255 130.348C185.377 130.191 187.106 131.92 187.184 133.963C187.263 136.006 185.613 137.813 183.57 137.892C180.426 138.049 176.89 138.049 173.197 138.049C159.916 138.049 139.877 138.049 137.756 145.514C136.97 148.186 138.384 150.858 139.249 152.272C141.371 155.573 145.064 158.245 148.207 158.638C150.25 158.952 151.665 160.838 151.351 162.96C151.036 164.767 149.386 166.103 147.579 166.103Z" fill="#FFDF57"/>
<path d="M147.422 139.62C147.029 139.62 146.714 139.542 146.321 139.463C127.854 133.884 128.955 122.332 130.212 117.617C133.827 104.808 156.616 104.965 176.733 105.044C180.898 105.044 184.749 105.122 187.97 104.965C190.092 104.808 191.821 106.537 191.9 108.58C191.978 110.623 190.328 112.43 188.285 112.509C184.984 112.666 180.977 112.588 176.733 112.588C162.824 112.509 139.563 112.352 137.52 119.66C136.892 121.782 135.163 128.147 148.522 132.233C150.486 132.862 151.665 134.984 151.036 136.948C150.565 138.599 149.072 139.62 147.422 139.62Z" fill="#FFDF57"/>
<path d="M143.964 113.923C143.806 113.923 143.571 113.923 143.413 113.845C137.755 112.98 132.176 109.523 129.269 104.965C126.911 101.35 126.282 97.421 127.382 93.4918C130.997 80.5256 151.743 80.5256 170.053 80.5256C173.668 80.5256 177.125 80.5256 180.19 80.447C182.312 80.3684 184.041 82.0187 184.119 84.0619C184.198 86.1836 182.548 87.9124 180.505 87.991C177.361 88.0696 173.825 88.1481 170.132 88.1481C156.851 88.1481 136.812 88.1481 134.691 95.6135C134.219 97.4209 134.534 99.2284 135.634 100.957C137.441 103.708 141.056 105.987 144.592 106.458C146.635 106.772 148.05 108.658 147.735 110.78C147.421 112.587 145.771 113.923 143.964 113.923Z" fill="#FFDF57"/>
</svg>

<svg width="244" height="302" fill="none" xmlns="http://www.w3.org/2000/svg"><path d="M3.772 301.658a3.08 3.08 0 01-1.415-.314C.943 300.794 0 299.379 0 297.886V31.254c0-2.121 1.65-3.772 3.772-3.772h236.456c2.122 0 3.772 1.65 3.772 3.772v191.193c0 2.121-1.65 3.772-3.772 3.772H80.783l-74.34 74.339a3.882 3.882 0 01-2.671 1.1zM7.544 35.026v253.745l68.996-68.996a3.743 3.743 0 012.672-1.1h157.244V35.026H7.544z" fill="#fff"/><path d="M61.373 75.182l.471 112.766s103.494.393 117.796-.471c20.196-1.179 24.597-24.754 6.051-25.854 0 0 15.717-.629 15.638-12.416-.078-11.788-17.995-15.088-17.995-15.088s17.917-.629 17.367-11.866c-.629-11.787-16.346-13.359-16.346-13.359s16.267-3.301 16.188-16.895c-.078-21.846-34.89-22.318-56.736-22.24 0 0 33.397-60.744 16.581-65.695-16.817-4.95-38.506 53.987-48.565 62.474-10.058 8.487-50.45 8.644-50.45 8.644z" fill="#fff"/><path d="M109.702 191.799c-24.36 0-45.97-.078-47.857-.078a3.773 3.773 0 01-3.772-3.772l-.471-112.767a3.773 3.773 0 013.772-3.772c15.087-.078 41.491-2.2 48.014-7.7 2.907-2.437 8.094-11.945 13.044-21.14C134.141 20.883 147.5-3.636 161.41.45c2.907.864 5.108 2.908 6.286 5.815 5.344 12.966-10.216 45.421-17.681 59.723 10.452.079 21.61.629 31.198 2.986 15.245 3.772 23.024 11.473 23.103 23.025 0 7.78-4.322 13.045-9.273 16.345 4.794 2.594 9.037 6.916 9.43 13.752.157 3.458-.943 6.601-3.222 9.116-1.493 1.65-3.3 2.829-5.265 3.772 4.794 2.908 9.116 7.387 9.194 14.223 0 6.523-3.614 10.609-8.015 13.124 2.75 2.672 4.086 6.208 4.086 9.744 0 8.801-7.937 18.389-21.374 19.253-7.859.393-40.942.471-70.175.471zm-44.085-7.622c18.703.078 101.293.236 113.788-.472 9.823-.628 14.302-7.151 14.224-11.708 0-3.93-2.987-6.366-8.173-6.601-2.043-.079-3.536-1.808-3.536-3.772 0-2.044 1.571-3.694 3.615-3.772.471 0 12.101-.629 12.023-8.645 0-8.329-14.774-11.315-14.931-11.394-1.886-.393-3.222-2.043-3.065-4.008.157-1.886 1.729-3.457 3.615-3.536 2.436-.079 9.509-1.022 12.495-4.322.943-1.022 1.336-2.122 1.257-3.615-.471-8.408-12.809-9.823-12.966-9.823-1.886-.157-3.301-1.729-3.379-3.536-.079-1.886 1.179-3.536 2.986-3.851.55-.078 13.202-2.907 13.202-13.201 0-4.873-1.807-11.867-17.367-15.717-10.687-2.672-23.968-2.75-35.598-2.75-1.414.157-2.593-.708-3.222-1.808-.707-1.179-.707-2.593-.078-3.772 9.822-17.917 24.046-49.664 20.274-58.858-.393-.943-.864-1.258-1.493-1.415-8.173-2.436-21.925 23.182-30.255 38.427-6.05 11.08-10.765 19.882-14.852 23.26-9.273 7.78-38.191 9.195-49.114 9.43l.55 105.459z" fill="#FFDF57"/><path d="M149.308 191.328c-.157 0-.393 0-.55-.078-5.579-.865-10.923-4.165-13.909-8.645-2.436-3.614-3.144-7.622-2.201-11.708 3.379-13.674 23.732-13.438 41.649-13.124 4.087.079 7.859.079 11.159 0 2.122-.157 3.851 1.572 3.929 3.615.079 2.043-1.571 3.851-3.614 3.929-3.458.157-7.387.079-11.552 0-13.674-.157-32.298-.471-34.262 7.387-.472 1.965-.079 3.851 1.1 5.658 1.807 2.672 5.343 4.793 8.722 5.344 2.044.314 3.458 2.2 3.144 4.322-.157 1.964-1.729 3.3-3.615 3.3z" fill="#FFDF57"/><path d="M147.579 166.103c-.158 0-.393 0-.551-.078-5.265-.786-10.844-4.637-14.144-9.745-2.751-4.243-3.615-8.801-2.437-12.887 3.615-12.967 24.361-12.967 42.671-12.967 3.615 0 7.072 0 10.137-.078 2.122-.157 3.851 1.572 3.929 3.615.079 2.043-1.571 3.85-3.614 3.929-3.144.157-6.68.157-10.373.157-13.281 0-33.32 0-35.441 7.465-.786 2.672.628 5.344 1.493 6.758 2.122 3.301 5.815 5.973 8.958 6.366 2.043.314 3.458 2.2 3.144 4.322-.315 1.807-1.965 3.143-3.772 3.143z" fill="#FFDF57"/><path d="M147.422 139.62c-.393 0-.708-.078-1.101-.157-18.467-5.579-17.366-17.131-16.109-21.846 3.615-12.809 26.404-12.652 46.521-12.573 4.165 0 8.016.078 11.237-.079 2.122-.157 3.851 1.572 3.93 3.615.078 2.043-1.572 3.85-3.615 3.929-3.301.157-7.308.079-11.552.079-13.909-.079-37.17-.236-39.213 7.072-.628 2.122-2.357 8.487 11.002 12.573 1.964.629 3.143 2.751 2.514 4.715-.471 1.651-1.964 2.672-3.614 2.672z" fill="#FFDF57"/><path d="M143.964 113.923c-.158 0-.393 0-.551-.078-5.658-.865-11.237-4.322-14.144-8.88-2.358-3.615-2.987-7.544-1.887-11.473 3.615-12.966 24.361-12.966 42.671-12.966 3.615 0 7.072 0 10.137-.079a3.778 3.778 0 013.929 3.615 3.778 3.778 0 01-3.614 3.929c-3.144.079-6.68.157-10.373.157-13.281 0-33.32 0-35.441 7.466-.472 1.807-.157 3.614.943 5.343 1.807 2.751 5.422 5.03 8.958 5.501 2.043.314 3.458 2.2 3.143 4.322-.314 1.807-1.964 3.143-3.771 3.143z" fill="#FFDF57"/></svg>
